Sources/FrostedUI/Resources/Icons.xcassets/flagFilled20.imageset/flag-filled-20.svg

<svg width="20" height="20" viewBox="0 0 20 20" fill="none" xmlns="http://www.w3.org/2000/svg" data-fui-icon="true">
  <path
    d="M7.41016 1.54199C8.47913 1.54199 9.51083 2.06998 10.332 2.47656C11.2405 2.92634 11.9395 3.25474 12.5889 3.25488C13.2709 3.25488 13.981 3.09785 14.5684 2.91504C15.5711 2.60285 16.7908 3.29531 16.791 4.48926V12.0518C16.7909 12.6484 16.4487 13.2301 15.8457 13.4717L15.8467 13.4727C15.1862 13.7374 13.9025 14.1758 12.5889 14.1758C11.52 14.1756 10.4881 13.6487 9.66699 13.2422C8.75842 12.7924 8.05967 12.4629 7.41016 12.4629C6.66395 12.463 5.88669 12.6517 5.27539 12.8535C5.05655 12.9258 4.86361 12.9991 4.70801 13.0615V17.709C4.70767 18.1229 4.37201 18.459 3.95801 18.459C3.54417 18.4588 3.20835 18.1228 3.20801 17.709V3.66602C3.2081 3.06954 3.55067 2.48781 4.15332 2.24609L4.42871 2.13965C5.13451 1.87835 6.26068 1.54211 7.41016 1.54199Z"
    fill="currentColor"
  />
</svg>

<svg xmlns="http://www.w3.org/2000/svg" width="20" height="20" fill="none" data-fui-icon="true" viewBox="0 0 20 20"><path fill="currentColor" d="M7.41 1.542c1.07 0 2.1.528 2.922.935.909.45 1.608.778 2.257.778.682 0 1.392-.157 1.98-.34 1.002-.312 2.222.38 2.222 1.574v7.563c0 .596-.342 1.178-.945 1.42-.66.265-1.944.704-3.257.704-1.069 0-2.1-.527-2.922-.934-.909-.45-1.607-.78-2.257-.78-.746.001-1.523.19-2.135.392a10 10 0 0 0-.567.208v4.647a.75.75 0 0 1-1.5 0V3.666c0-.596.343-1.178.945-1.42l.276-.106c.706-.262 1.832-.598 2.981-.598"/></svg>
